!!!COM: Bach, Johann Sebastian
!!!OPR: Six Concerts Avec plusieurs ... le prince regnant d'Anhalt-Coethen
!!!OTL: Brandenburgische Konzerte D
!!!XEN: Brandenburg Concerto No. 5 in D major.
!!!OMV: Movement 2.
!!!SCT: BWV 1050
!!!YEC: Copyright 1994, Center for Computer Assisted Research in the Humanities
!!!YEM: Rights to all derivative electronic formats reserved.
!!!YEM: Refer to licensing agreement for further details.
!! For the following instrumentation: Flauto traverso, Violino principale,
!!    Cembalo.
!! Affettuoso.
**kern	**kern	**kern	**kern
*ICklav	*ICklav	*ICstr	*ICstr
*Icemba	*Icemba	*Ivioln	*Iflt
!cemba1	!cemba2	!vln pr	!flauto traverso
*k[f#c#]	*k[f#c#]	*k[f#c#]	*k[f#c#]
*b:	*b:	*b:	*b:
*M4/4	*M4/4	*M4/4	*M4/4
*MM24	*MM24	*MM24	*MM24
*clefF4	*clefG2	*clefG2	*clefG2
=1	=1	=1	=1
8B\L	1r	8r	2r
8A\	.	8f#/	.
8G\	.	8b\L	.
8E\J	.	16.cc#\LL	.
.	.	32dd\JJk	.
8F#\L	.	8a#\L	8r
8E\J	.	16.b\LL	8f#/
.	.	32cc#\JJk	.
8D/L	.	8dd\L	8b\L
16.C#/LL	.	16.eeT\LL	16.cc#T\LL
32BB/JJk	.	32ff#\JJk	32dd\JJk
=2	=2	=2	=2
8F#\L	1r	8cc#/L	8a#\L
16.G#\LL	.	8f#/J	16.b\LL
32A#\JJk	.	.	32cc#\JJk
8B\L	.	[4ff#\	8dd\L
16.c#\LL	.	.	16.ee\LL
32d\JJk	.	.	32ff#\JJk
8E\L	.	8ff#\L]	8gg\L
16.F#\LL	.	16.ee\LL	16.aa\LL
32G\JJk	.	32dd\JJk	32bb\JJk
8A\L	.	(16cc#t\LL	8aa\L
.	.	16b\JJ	.
8AA\J	.	8cc#\J)	(32ggT\LLL
.	.	.	32ff#\JJJ
.	.	.	16gg\JJ)
=3	=3	=3	=3
8D\	1r	4.dd\	8ff#\L
8G\L	.	.	8b\J
8C#\	.	.	[4ee\
16.D\LL	.	16.cc#t\LL	.
32E\JJk	.	32b\JJk	.
8F#\L	.	4a#/	8ee\L]
8E\	.	.	16.ff#\LL
.	.	.	32gg\JJk
8D\	.	8r	8ff#\L
8C#\J	.	8a#/	(32eeT\LLL
.	.	.	32dd\JJJ
.	.	.	16ee\JJ)
=4	=4	=4	=4
8BB/	1r	8b/L	(16dd\LL
.	.	.	16cc#\)
8BB\L	.	8f#/J	(16ee\
.	.	.	16dd\JJ)
8E\	.	8e/L	(16dd\LL
.	.	.	16cc#\)
16.F#\LL	.	16.d/LL	(16.b\
32G\JJk	.	32c#/JJk	32a#\JJk)
8AA#/L	.	8ee\L	8gg\L
8BB/	.	16.dd\LL	16.ff#\LL
.	.	32cc#\JJk	32ee\JJk
8F#/	.	8b/L	8dd\L
8FF#/J	.	8a#/J	(16cc#t\LL
.	.	.	16b\JJ)
=5	=5	=5	=5
8BB/L	8r	4b\	8.b\L
8AA/J	8f#/	.	.
.	.	.	16cc#\Jk
4GGT/	8b\L	4r	16dd\LL
.	.	.	16ee\
.	16.cc#\LL	.	(16eeT\
.	.	.	32dd\LLL
.	32dd\JJk	.	32ee\JJJ)
[2FF#/	8a#\L	2r	8ff#\
.	16.b\LL	.	8f#/
.	32cc#\JJk	.	.
.	8dd\L	.	8b\L
.	16.ee\LL	.	16.cc#\LL
.	32ff#\JJk	.	32dd\JJk
=6	=6	=6	=6
2FF#/_	(32cc#\LLL	8r	8a#\L
.	32a#\	.	.
.	32cc#\	.	.
.	32ee\	.	.
.	32gg\	8f#/	16.b\LL
.	32ff#\	.	.
.	32gg\	.	.
.	32ee\JJJ)	.	32cc#\JJk
.	(8.ddT\L	8b\L	8dd\L
.	.	16.cc#\LL	16.ee\LL
.	32cc#\LLL	.	.
.	32dd\JJJ)	32dd\JJk	32ff#\JJk
8FF#\L]	8cc#\L	4a#/	4cc#\)
8F#\	(16ff#\LL	.	.
.	16ee\JJ)	.	.
8G#\	(16ee\LL	4r	4r
.	16dd\)	.	.
8A#\J	(16ee\	.	.
.	16cc#\JJ)	.	.
=7	=7	=7	=7
8B\L	[2dd\	1r	8r
16.BB\LL	.	.	8f#/
32C#\JJk	.	.	.
8D/L	.	.	8b\L
16.C#/LL	.	.	16.cc#Mm\LL
32BB/JJk	.	.	32dd\JJk
8E\L	8dd\L]	.	4g#/
8E\	(16bb\LL	.	.
.	16gg#\JJ)	.	.
8F#\	(16dd\LL	.	4r
.	16cc#\)	.	.
8G#\J	(16dd\	.	.
.	16b\JJ)	.	.
=8	=8	=8	=8
8A\L	[2cc#\	8r	1r
16.AA\LL	.	8e/	.
32BB\JJk	.	.	.
8C#/L	.	8a/L	.
16.BB/LL	.	16.bT/LL	.
32AA/JJk	.	32cc#/JJk	.
8D\L	8cc#\L]	4f#/	.
8D\	(16aa\LL	.	.
.	16ff#\JJ)	.	.
8E\	(16cc\LL	4r	.
.	16b\)	.	.
8F#\J	(16cc\	.	.
.	16a\JJ)	.	.
=9	=9	=9	=9
(16G\LL	8b\L	1r	1r
16F#\	.	.	.
16G\	(16ee\LL	.	.
16E\JJ)	16cc#\JJ)	.	.
8C#/L	(16g/LL	.	.
.	16f#/	.	.
8AA/J	16g/	.	.
.	16e/JJ)	.	.
8D\L	8.f#/L	.	.
8G\	.	.	.
.	16g/Jk	.	.
8A\	8.eT/L	.	.
8AA\J	.	.	.
.	16d/Jk	.	.
=10	=10	=10	=10
8D/L	4d/	2r	8r
8C#/	.	.	8a/
8BB/	4r	.	8dd\L
8GG/J	.	.	16.ee\LL
.	.	.	32ff#\JJk
8AA/L	2r	8r	8cc#\L
8GG/	.	8a/	16.dd\LL
.	.	.	32ee\JJk
8FF#/	.	8dd\L	8ff#\L
8DD/J	.	16.ee\LL	16.gg\LL
.	.	32ff#\JJk	32aa\JJk
=11	=11	=11	=11
8AA/	1r	8cc#\L	8ee\L
8A\L	.	16.dd\LL	8a\J
.	.	32ee\JJk	.
8d\	.	8ff#\L	[4aa\
16.e\LL	.	16.gg\LL	.
32f#\JJk	.	32aa\JJk	.
8c#\L	.	8ee\L	8aa\L]
8c\J	.	8a\J	16.gg\LL
.	.	.	32ff#\JJk
8B\L	.	[4dd\	8gg\L
16.A\LL	.	.	16.aa\LL
32G\JJk	.	.	32bb\JJk
=12	=12	=12	=12
8A\	1r	16dd\LL]	8ee\L
.	.	16cc#\	.
8F#\L	.	16.b\	16.dd\LL
.	.	32a\JJk	32cc#\JJk
8B\	.	16g/LL	8dd\L
.	.	16f#/JJ	.
16.c#\LL	.	[8g/J	16.ee\LL
32d\JJk	.	.	32ff#\JJk
8E\L	.	8g/L]	8cc#\L
8G\J	.	8e/	16.b\LL
.	.	.	32a\JJk
8F#\L	.	8a/	[4cc\
16.E\LL	.	8f#/J	.
32D\JJk	.	.	.
=13	=13	=13	=13
4.G\	1r	8d/L	8cc\L]
.	.	8g/J	8b\J
.	.	8e/L	8cc#\L
16.F#\LL	.	16.d/LL	16.dd\LL
32E\JJk	.	32c#/JJk	32ee\JJk
8B\L	.	8.d/L	8.f#/L
8G\	.	.	.
.	.	16e/Jk	16e/Jk
8A\	.	8.c#t/L	8.eT/L
8AA\J	.	.	.
.	.	16d/Jk	16d/Jk
=14	=14	=14	=14
8D\	8r	8d/	4d/
8d\L	8ff#\	4b/	.
8c#\	8ee\L	.	4r
8F#\J	16.dd\LL	8a#t/	.
.	32cc#\JJk	.	.
8B\L	8dd\L	4b\	2r
8G#\J	(16b\LL	.	.
.	16dd\JJ)	.	.
8E#\L	(16gg#\LL	4r	.
.	16aa\	.	.
16.D#\LL	16gg#\	.	.
.	16bb\JJ)	.	.
32C#\JJk	.	.	.
=15	=15	=15	=15
8F#\	[2aa\	8r	1r
8C#\L	.	8cc#\	.
8F#\	.	8a/L	.
16.G#\LL	.	16.g#t/LL	.
32A\JJk	.	32f#/JJk	.
8B\L	8aa\L]	4dd\	.
8F#\	(16b\LL	.	.
.	16dd\JJ)	.	.
8D\	(16ff#\LL	4r	.
.	16gg#\	.	.
8BB\J	16ff#\	.	.
.	16aa\JJ)	.	.
=16	=16	=16	=16
8E\	[2gg#\	1r	8r
8BB\L	.	.	8b/
8E\	.	.	8g#/L
16.F#\LL	.	.	16.f#T/LL
32G#\JJk	.	.	32e/JJk
8A\L	8gg#\L]	.	4cc#\
8E\	(16a\LL	.	.
.	16cc#\JJ)	.	.
8C#\	(16ee#\LL	.	4r
.	16ff#\	.	.
8AA\J	16ee#\	.	.
.	16gg#\JJ)	.	.
=17	=17	=17	=17
4D\	8ff#\L	1r	1r
.	(16dd\LL	.	.
.	16b\JJ)	.	.
8r	(16g#/LL	.	.
.	16f#/	.	.
(16d\LL	16g#/)	.	.
16B\JJ)	16ff#/JJ	.	.
(16G#\LL	16ee#\LL	.	.
16F#\	16ff#\	.	.
16G#\)	16ee#\	.	.
16B\JJ	16ff#\JJ	.	.
16A\LL	8.ff#T\L	.	.
16G#\	.	.	.
16A\	.	.	.
16F#\JJ	32ee#\LLL	.	.
.	32ff#\JJJ	.	.
=18	=18	=18	=18
8c#\L	8gg#\L	2r	8r
8B\J	8cc#\J	.	8cc#\
8A\L	8r	.	8ff#\L
16.G#\LL	8cc#\	.	16.gg#\LL
32F#\JJk	.	.	32aa\JJk
8G#\L	(16b\LL	8r	8ee#\L
.	16dd\	.	.
8C#\J	16cc#\	8cc#\	16.ff#\LL
.	16b\JJ)	.	.
.	.	.	32gg#\JJk
8r	(16a/LL	8ff#\L	8aa\L
.	16g#/	.	.
8F#\	16e#/	16.gg#\LL	16.bb\LL
.	16f#/JJ)	.	.
.	.	32aa\JJk	32ccc#\JJk
=19	=19	=19	=19
8B\L	[4dd\	4ee#\	4gg#\
16.c#\LL	.	.	.
32d\JJk	.	.	.
8E#\L	16dd\LL]	4r	4r
.	(16b\	.	.
8C#\J	16ee#\	.	.
.	16ff#\JJ)	.	.
8F#/L	16a/LL	2r	2r
.	16b#/	.	.
16.AA/LL	16cc#/	.	.
.	16f#/JJ	.	.
32BB/JJk	.	.	.
8C#/L	8a/L	.	.
8CC#/J	16.g#t/LL	.	.
.	32f#/JJk	.	.
=20	=20	=20	=20
8F#\L	4f#/	2r	8r
8E\	.	.	8cc#\
8D\	4r	.	8ff#\L
8BB\J	.	.	16.gg#\LL
.	.	.	32aa\JJk
8C#/L	2r	8r	8ee#\L
8BB/J	.	8c#/	16.ff#\LL
.	.	.	32gg#\JJk
8AA/L	.	8f#/L	8aa\L
16.GG#/LL	.	16.g#/LL	16.bb\LL
32FF#/JJk	.	32a/JJk	32ccc#\JJk
=21	=21	=21	=21
8C#\L	1r	8e#/L	8gg#\L
16.D#\LL	.	16.f#/LL	8cc#\J
32E#\JJk	.	32g#/JJk	.
8F#\L	.	8a\L	[4ccc#\
16.G#\LL	.	16.b\LL	.
32A\JJk	.	32cc#\JJk	.
8BB/L	.	8dd\L	8ccc#\L]
16.C#/LL	.	16.ee\LL	16.bbT\LL
32D/JJk	.	32ff#\JJk	32aa\JJk
8E/L	.	8ee\L	(16gg#t\LL
.	.	.	16ff#\JJ
8EE/J	.	(32ddT\LLL	8gg#\J)
.	.	32cc#\JJJ	.
.	.	16dd\JJ)	.
=22	=22	=22	=22
8AA/	1r	8cc#/L	4.aa\
8D/L	.	8f#/J	.
8GG#/	.	[4b\	.
16.AA/LL	.	.	16.gg#t\LL
32BB/JJk	.	.	32ff#\JJk
8C#/L	.	8b\L]	4ee#\
8BB/	.	16.cc#\LL	.
.	.	32dd\JJk	.
8AA/	.	8cc#\L	8r
8GG#/J	.	(32bT\LLL	8ee#\
.	.	32a\JJJ	.
.	.	16b\JJ)	.
=23	=23	=23	=23
8FF#/	1r	(16a/LL	8ff#\L
.	.	16g#/)	.
8F#\L	.	(16b/	8cc#\J
.	.	16a/JJ)	.
8B\	.	(16a/LL	8b/L
.	.	16g#/)	.
16.c#\LL	.	(16f#/	16.a/LL
.	.	16e#/JJ)	.
32d\JJk	.	.	32g#/JJk
8E#\L	.	8dd\L	8bb\L
8F#\	.	16.cc#\LL	16.aa\LL
.	.	32b\JJk	32gg#\JJk
8c#\	.	8a/L	(8ff#\L
8C#\J	.	16.g#/LL	8ee#t\J)
.	.	32f#/JJk	.
=24	=24	=24	=24
8FF#\	8r	4f#/	4ff#\
16.F#\LL	8cc#\	.	.
32G#\JJk	.	.	.
8A\L	8ff#\L	4r	4r
16.G\LL	16.gg\LL	.	.
32F#\JJk	32aa\JJk	.	.
8B\L	8.dd#\L	2r	8r
16.BB\LL	.	.	(16ff#\LL
.	16ee\Jk	.	16dd#\JJ)
32C#\JJk	.	.	.
8D#/L	[4ff#\	.	(16a/LL
.	.	.	16g/)
16.C#/LL	.	.	(16a/
.	.	.	16f#/JJ)
32BB/JJk	.	.	.
=25	=25	=25	=25
8E\L	8ff#\L]	2r	4g/
16.E\LL	8b\J	.	.
32F#\JJk	.	.	.
8G\L	8ee\L	.	4r
16.F#\LL	16.ff#\LL	.	.
32E\JJk	32gg\JJk	.	.
8A\L	8.cc#\L	8r	2r
16.AA\LL	.	(16ee\LL	.
.	16dd\Jk	16cc#\JJ)	.
32BB\JJk	.	.	.
8C#/L	[4ee\	(16g/LL	.
.	.	16f#/	.
16.BB/LL	.	16g/	.
.	.	16e/JJ)	.
32AA/JJk	.	.	.
=26	=26	=26	=26
8D\L	16ee\LL]	4f#/	1r
.	16dd\	.	.
16D\LL	(16aa\	.	.
16E\JJ	16ff#\JJ)	.	.
8F#\L	(16cc\LL	4r	.
.	16b\)	.	.
16.ET\LL	(16cc\	.	.
.	16a\JJ)	.	.
32D\JJk	.	.	.
8G\L	8b\L	2r	.
16E\LL	(16bb\LL	.	.
16F#\JJ	16gg#\JJ)	.	.
8G#\L	(16dd\LL	.	.
.	16cc\)	.	.
16.F#T\LL	(16dd\	.	.
.	16b\JJ)	.	.
32E\JJk	.	.	.
=27	=27	=27	=27
4A\	(16cc\LL	1r	1r
.	16a\)	.	.
.	(16ff#\	.	.
.	16dd#\JJ)	.	.
8r	(16a/LL	.	.
.	16g/)	.	.
8D#\	(16a/	.	.
.	16f#/JJ)	.	.
8E\L	16g\LL	.	.
.	16b\	.	.
8G\J	16dd#\	.	.
.	16ee\JJ	.	.
8C/L	16a\LL	.	.
.	(16ff#\	.	.
16.BB/LL	16gg\	.	.
.	16aa\JJ)	.	.
32AA/JJk	.	.	.
=28	=28	=28	=28
4BB/	4dd#t\	8r	8r
.	.	(16ff#\LL	(16aa\LL
.	.	16dd#\JJ)	16ff#\JJ)
4r	8r	(16a/LL	(16cc\LL
.	.	16g/	16b\)
.	8ff#\	16a/	(16cc\
.	.	16f#/JJ)	16a\JJ)
4BB/	(16ff#\LL	8g\L	8b\L
.	16dd#\JJ)	.	.
.	8ee\J	(16gg\LL	(16bb\LL
.	.	16ee\JJ)	16gg\JJ)
4r	8r	(16b/LL	(16dd\LL
.	.	16a/	16cc\)
.	8gg\	16b/	(16dd\
.	.	16g/JJ)	16b\JJ)
=29	=29	=29	=29
8BB\L	(16gg\LL	8a\L	8cc\L
.	16ee\JJ)	.	.
(16A\LL	8ff#\J	(16cc\LL	(16ff#\LL
16F#\JJ)	.	16a\JJ)	16dd#\JJ)
8D#/L	8r	(16f#/LL	(16a/LL
.	.	16e/)	16g/
16.C#T/LL	8aa\	(16f#/	16a/
.	.	16d#/JJ)	16f#/JJ)
32BB/JJk	.	.	.
8E\L	(16cc\LL	8e/	8g/
.	16a\)	.	.
16G\LL	(16b\	8r	8r
16E\JJ	16gg\JJ)	.	.
8B\L	(16ff#\LL	4r	4r
.	16ee\)	.	.
8BB\J	(16ff#\	.	.
.	16dd#\JJ)	.	.
=30	=30	=30	=30
4E\	4ee\	4r	8r
.	.	.	(16b/LL
.	.	.	16g/JJ)
8r	4r	8r	(16e/LL
.	.	.	16d#/
8G\	.	(16b/LL	16e/
.	.	16g/JJ)	16g/JJ)
4A\	2r	(16e/LL	8cc\L
.	.	16d#/)	.
.	.	(16e/	(16cc\LL
.	.	16a/JJ)	16a\JJ)
8r	.	8cc\L	(16f#/LL
.	.	.	16e/
8AA/	.	(16cc\LL	16f#/)
.	.	16a\JJ)	16a/JJ
=31	=31	=31	=31
4BB/	1r	(16f#/LL	8dd\L
.	.	16e/)	.
.	.	(16f#/	(16dd\LL
.	.	16b/JJ)	16b\JJ)
8r	.	8dd\L	(16g/LL
.	.	.	16f#/
8BB/	.	(16dd\LL	16g/)
.	.	16b\JJ)	16b/JJ
8C/L	.	(16g/LL	8.ee\L
.	.	16f#/)	.
8AA/J	.	(16g/	.
.	.	16a/JJ)	16ff#\Jk
8E\L	.	8.b\L	(16gg\LL
.	.	.	16ff#\
16.D\LL	.	.	16gg\
.	.	16cc\Jk	16aa\JJ)
32C\JJk	.	.	.
=32	=32	=32	=32
8D\L	1r	8a/	8ff#\
16.d\LL	.	8r	8dd\
32c\JJk	.	.	.
8B\L	.	4r	8gg\L
16.A\LL	.	.	16.aa\LL
32G\JJk	.	.	32bb\JJk
8c\L	.	8r	8ee\L
16.e\LL	.	8g/	8ee\J
32d\JJk	.	.	.
8c\L	.	8cc\L	8aa\L
16.B\LL	.	16.dd\LL	16.bb\LL
32A\JJk	.	32ee\JJk	32ccc\JJk
=33	=33	=33	=33
8d\L	1r	8.a/L	8.ff#\L
16.A\LL	.	.	.
.	.	16b/Jk	16gg\Jk
32G\JJk	.	.	.
8F#\L	.	[4cc\	[4aa\
16.E\LL	.	.	.
32D\JJk	.	.	.
8G/L	.	8cc\L]	8aa\L]
8C/	.	16.b\LL	16.gg\LL
.	.	32cc\JJk	32aa\JJk
8D/	.	8.aT/L	8.ff#t\L
8DD/J	.	.	.
.	.	16g/Jk	16gg\Jk
=34	=34	=34	=34
8GG/	8r	4g/	8gg\
8G\L	8b/	.	8gg\
8A\	8a/L	4r	8ff#\L
8B\J	16.g/LL	.	16.eeT\LL
.	32f#/JJk	.	32dd#\JJk
8E/L	8g/L	2r	8ee\
8C#/J	(16e/LL	.	8r
.	16g/JJ)	.	.
8AA#/L	(16cc#\LL	.	4r
.	16dd\	.	.
16.GG#/LL	16cc#\	.	.
.	16ee\JJ)	.	.
32FF#/JJk	.	.	.
=35	=35	=35	=35
8BB/	[2dd\	1r	8r
8FF#/L	.	.	8ff#\
8BB/	.	.	8dd\L
16.C#/LL	.	.	16.cc#t\LL
32D/JJk	.	.	32b\JJk
8E/L	8dd/L]	.	4gg\
8BB/	(16e/LL	.	.
.	16g/JJ)	.	.
8GG/	(16b\LL	.	4r
.	16cc#\	.	.
8EE/J	16b\	.	.
.	16dd\JJ)	.	.
=36	=36	=36	=36
8AA/	[2cc#\	8r	1r
8EE/L	.	8ee\	.
8AA/	.	8cc#\L	.
16.BB/LL	.	16.bT\LL	.
32C#/JJk	.	32a\JJk	.
8D/L	8cc#/L]	4ff#\	.
8AA/	(16d/LL	.	.
.	16f#/JJ)	.	.
8FF#/	(16a#/LL	4r	.
.	16b/	.	.
8DD/J	16a#/	.	.
.	16cc#/JJ)	.	.
=37	=37	=37	=37
4GG/	8b/L	1r	1r
.	16g/LL	.	.
.	16e/JJ	.	.
8r	(16c#/LL	.	.
.	16B/	.	.
(16G\LL	16c#/)	.	.
16E\JJ)	16b/JJ	.	.
(16C#/LL	16a#/LL	.	.
16BB/	16b/	.	.
16C#/	16a#/	.	.
16E/JJ)	16b/JJ	.	.
(16D/LL	8.bT/L	.	.
16C#/	.	.	.
16D/	.	.	.
16BB/JJ)	32a#/LLL	.	.
.	32b/JJJ	.	.
=38	=38	=38	=38
8F#\L	8cc#/L	8r	2r
8E\J	8f#/J	8f#/	.
8D/L	8r	8b\L	.
16.C#/LL	8ff#\	16.cc#\LL	.
32BB/JJk	.	32dd\JJk	.
8C#/L	(16ee\LL	8a#\L	8r
.	16gg\	.	.
8FF#/J	16ff#\	16.b\LL	8f#/
.	16ee\JJ)	.	.
.	.	32cc#\JJk	.
8r	(16dd\LL	8dd\L	8b\L
.	16cc#\	.	.
8BB/	16a#\	16.ee\LL	16.cc#\LL
.	16b\JJ)	.	.
.	.	32ff#\JJk	32dd\JJk
=39	=39	=39	=39
8E\L	[4gg\	4cc#\	4a#/
16.F#\LL	.	.	.
32G\JJk	.	.	.
8AA#/L	16gg\LL]	4r	4r
.	(16ee\	.	.
8FF#/J	16aa#\	.	.
.	16bb\JJ)	.	.
16BB/LL	(16dd\LL	2r	2r
16C#/	16ee#\	.	.
16D/	16ff#\)	.	.
16E/JJ	16b\JJ	.	.
8F#/L	(8dd\L	.	.
8FF#/J	32cc#t\LLL	.	.
.	32b\JJJ	.	.
.	16cc#\JJ)	.	.
=40	=40	=40	=40
8BB/	4b\	8r	8r
16.BB/LL	.	(16dd\LL	(16ff#\LL
.	.	16b\JJ)	16dd\JJ)
32C#/JJk	.	.	.
8D/L	4r	(16g#/LL	(16b/LL
.	.	16f#/)	16a#/)
16.C#/LL	.	(16g#/	(16b/
.	.	16e#/JJ)	16g#/JJ)
32BB/JJk	.	.	.
8F#/L	8r	4f#/	4a#/
8FF#/J	(16c#/LL	.	.
.	16e/JJ)	.	.
4r	(16a#/LL	4r	4r
.	16b/	.	.
.	16a#/	.	.
.	16cc#/JJ)	.	.
=41	=41	=41	=41
8r	4d/	8r	8r
16.BB/LL	.	(16ff#\LL	(16ddd\LL
.	.	16dd\JJ)	16bb\JJ)
32C#/JJk	.	.	.
8D/L	4r	(16b/LL	(16gg#\LL
.	.	16a#/)	16ff#\)
16.C#/LL	.	(16b/	(16gg#\
.	.	16g#/JJ)	16ee#\JJ)
32BB/JJk	.	.	.
8F#/L	8r	4a#/	4ff#\
8FF#/J	(16c#/LL	.	.
.	16e/JJ)	.	.
8r	(16a#/LL	4r	4r
.	16b/	.	.
8F#\	16a#/	.	.
.	16cc#/JJ)	.	.
=42	=42	=42	=42
8B\L	(16d/LL	1r	1r
.	16c#/	.	.
16.BB\LL	16d/	.	.
.	16f#/JJ)	.	.
32C#\JJk	.	.	.
8D/L	(16b\LL	.	.
.	16cc#\	.	.
16.C#/LL	16b\	.	.
.	16dd\JJ)	.	.
32BB/JJk	.	.	.
8.G\L	(16e/LL	.	.
.	16d/	.	.
.	16e/	.	.
16F#\Jk	16g/JJ)	.	.
(16E\LL	(16cc#\LL	.	.
16D\	16dd\	.	.
16E\	16cc#\	.	.
16C#\JJ)	16ee\JJ)	.	.
=43	=43	=43	=43
[1F#\	8ee\L	8r	8r
.	8a#t\J	(16ee\LL	(16ccc#\LL
.	.	16cc#\JJ)	16aa#\JJ)
.	8r	(16g/LL	(16ee\LL
.	.	16f#/)	16dd\)
.	8cc#\	(16g/	(16ee\
.	.	16e/JJ)	16cc#\JJ)
.	(16cc#\LL	8f#\L	8dd\L
.	16a#\JJ)	.	.
.	8b\J	(16ff#\LL	(16ddd\LL
.	.	16dd\JJ)	16bb\JJ)
.	8r	(16a/LL	(16ff#\LL
.	.	16g/)	16ee\)
.	8dd\	(16a/	(16ff#\
.	.	16f#/JJ)	16dd\JJ)
=44	=44	=44	=44
8F#\L]	(16dd\LL	8g/L	8ee\L
.	16b\JJ)	.	.
16E\LL	8cc#\J	(16cc#/LL	(16gg\LL
16C#\JJ	.	16a#/JJ)	16ee\JJ)
8AA#/L	8r	(16e/LL	(16cc#\LL
.	.	16d/)	16b\)
16.GG#/LL	8ee\	(16e/	(16cc#\
.	.	16c#/JJ)	16a#\JJ)
32FF#/JJk	.	.	.
8BB\L	(16g/LL	8d/	8b\
.	16e/)	.	.
16.D\LL	(16f#/	8r	8r
.	16dd/JJ)	.	.
32E\JJk	.	.	.
8F#/L	(16cc#/LL	4r	4r
.	16b/	.	.
8FF#/J	16cc#/	.	.
.	16a#/JJ)	.	.
=45	=45	=45	=45
8BB/	4b\	8r	2r
16B\LL	.	8f#/	.
16A\JJ	.	.	.
8G\L	4r	8b\L	.
8E\J	.	16.cc#\LL	.
.	.	32dd\JJk	.
8F#\L	2r	8a#\L	8r
8E\J	.	16.b\LL	8f#/
.	.	32cc#\JJk	.
8D/L	.	8dd\L	8b\L
16.C#/LL	.	16.ee\LL	16.cc#\LL
32BB/JJk	.	32ff#\JJk	32dd\JJk
=46	=46	=46	=46
8F#\L	1r	8cc#/L	8a#\L
16.G#\LL	.	8f#/J	16.b\LL
32A#\JJk	.	.	32cc#\JJk
8B\L	.	[4ff#\	8dd\L
16.c#\LL	.	.	16.ee\LL
32d\JJk	.	.	32ff#\JJk
8E\L	.	8ff#\L]	8gg\L
16.F#\LL	.	16.ee\LL	16.aa\LL
32G\JJk	.	32dd\JJk	32bb\JJk
8A\L	.	(16cc#t\LL	(8aa\L
.	.	16b\JJ	.
8AA\J	.	8cc#\J)	32ggT\LLL
.	.	.	32ff#\JJJ
.	.	.	16gg\JJ)
=47	=47	=47	=47
8D\	1r	4.dd\	8ff#\L
8G\L	.	.	8b\J
8C#\	.	.	[4ee\
16.D\LL	.	16.cc#t\LL	.
32E\JJk	.	32b\JJk	.
8F#\L	.	4a#/	8ee\L]
8E\	.	.	16.ff#\LL
.	.	.	32gg\JJk
8D\	.	8r	(8ff#\L
8C#\J	.	8a#/	32eeT\LLL
.	.	.	32dd\JJJ
.	.	.	16ee\JJ)
=48	=48	=48	=48
8BB/	1r	8b/L	(16dd\LL
.	.	.	16cc#\)
8BB\L	.	8f#/J	(16ee\
.	.	.	16dd\JJ)
8E\	.	8e/L	(16dd\LL
.	.	.	16cc#\)
16.F#\LL	.	16.d/LL	(16.b\
32G\JJk	.	32c#/JJk	32a#\JJk)
8AA#/L	.	8ee\L	8gg\L
8BB/	.	16.dd\LL	16.ff#\LL
.	.	32cc#\JJk	32ee\JJk
8F#/	.	8b/L	8dd\L
8FF#/J	.	8a#t/J	16cc#t\LL
.	.	.	16b\JJ
=49	=49	=49	=49
4BB/	1r	4b\	4b\
4r	.	4r	4r
2r	.	2r	2r
==	==	==	==
*-	*-	*-	*-
!!!CDT: 1685/3//-1750/7/28
!!!OCY: Deutschland
!!!ODE: His Royal Highness Christian Ludwig, Margrave of Brandenburg.
!!!ODT: 1720//-1721//
!!!OPC: ?Coethen; ?Cothen; ?Co2then
!!!PPR: Peters
!!!PDT: 1850
!!!PPP: Leipzig
!!!AGN: concerto grosso
!!!AST: baroque, orchestral
!!!AMT: simple quadruple
!!!SCA: Bach-Werke-Verzeichnis
!!!YOR: Bach Gesellschaft, xix,127
!!!YOY: 1871; although imprint says 1869
!!!AIN: cemba; clavi
!!!EEV: 1.0
!!!RDT: 1994 April 3
!!!YER: 1994 October 23
!!!YEN: United States of America
!!!EFL: 2/3
!!!EED: W.B. Hewlett
!!!VTS: 127670510
